X: 3436
T: Bethany's
R: waltz
M: 3/4
K: Gmajor
|:d3c (TBA|AB)G3(G|FG) A(D F)G|(AB) {c}(BA) FA|
(cd2)c (TBA|AB)G3(G|FG) A(D F)A|(FG2)A {c}Bc:|
|:(cd)(g2Tgf)|(fg)d4|(cB) A(G F)E|(DE) (FG) AB|
d2(g2Tgf)|(fg)d4|(cB) A(G F)D|1 G3A {c}Bc:|2 G6||
|:A3(B c/B/A)|B3(c d/c/B)|c3d ec|d(g fg) dG|
F3G AF|G3A {c}(Bd)|c2B3G|(FG) AF G2:|

